X:172
T:Paddy Clancy's
M:6/8
L:1/8
K:D 
f|:afd edB|dcd AFA|dcd ede|fef efg|
|afd edB|dcd AFA|dcd efg|1 fdd d2f:|2 fdd d2e|
|:faf gbg|faf fed|fef gfg|afd e2d|
|faf gbg|faf fed|fff ede|1 fdd d2e:|2 fdd d2f|
